packages/icons/src/cet-agents-settings.svg

<svg fill="none" viewBox="0 0 32 32" xmlns="http://www.w3.org/2000/svg"><g fill="#0278d5"><path d="m23.432 21.3913h-15.47194c-.3688 0-.66777-.2989-.66777-.6677v-2.8838l-.58892.0127v2.8127c0 .7376.59795 1.3355 1.33555 1.3355h15.37968c.7376 0 1.3355-.5979 1.3355-1.3355v-2.8127l-.6544.0113v2.8598c0 .3688-.2989.6677-.6677.6677z"/><path d="m8.02507 11.2639h15.47193c.3688 0 .6677.299.6677.6678v2.8837l.589-.0126v-2.8127c0-.7376-.598-1.3355-1.3356-1.3355h-15.37963c-.7376 0-1.33554.5979-1.33555 1.3355v2.8127l.65438-.0113v-2.8598c0-.3688.29897-.6678.66777-.6678z"/><path clip-rule="evenodd" d="m3.34419 15.0138c-.04656-.0884-.13381-.1054-.19487-.038l-1.09459 1.2074c-.03446.038-.0547.0971-.05473.1598s.02016.1218.05459.1599l1.09459 1.2106c.061.0675.14826.0506.1949-.0376.04664-.0883.03499-.2145-.02602-.282l-.76822-.8496h3.06515v-.4023h-3.06428l.76721-.8463c.06107-.0674.07283-.1936.02627-.2819z" fill-rule="evenodd"/></g><circle cx="7.06531" cy="16.3449" r="1.45032" stroke="#0278d5" stroke-width=".5"/><path clip-rule="evenodd" d="m16.4095 12.9454c.186.0401.3041.2234.2639.4093l-1.3698 6.1262c-.0402.186-.2235.3041-.4094.2639s-.304-.2235-.2638-.4094l1.3698-6.1262c.0402-.1859.2234-.304.4093-.2638zm1.0668 1.0642c.1285-.1402.3463-.1496.4865-.0211l2.0664 1.8941c.0675.0619.1075.1481.1113.2395.0039.0915-.0289.1807-.091.248l-2.0663 2.2385c-.129.1398-.3469.1485-.4867.0195-.1397-.129-.1484-.3469-.0194-.4867l1.8319-1.9846-1.8116-1.6606c-.1402-.1285-.1497-.3464-.0211-.4866zm-4.1169-.0164c.1375-.1315.3555-.1266.4869.0108.1315.1375.1267.3555-.0108.4869l-1.8172 1.7383 1.8278 1.9072c.1316.1374.127.3554-.0103.487-.1374.1316-.3554.1269-.487-.0104l-2.0663-2.1562c-.0632-.0659-.0976-.1544-.0957-.2457.002-.0914.0403-.1782.1063-.2414z" fill="#0278d5" fill-rule="evenodd"/><path clip-rule="evenodd" d="m27.9834 17.6757c.0466.0883.1339.1053.1949.038l1.0946-1.2074c.0345-.038.0547-.0971.0547-.1598.0001-.0627-.0201-.1219-.0546-.16l-1.0945-1.2106c-.061-.0674-.1483-.0506-.1949.0377-.0467.0882-.035.2145.026.2819l.7682.8497h-3.0652v.4023h3.0643l-.7672.8463c-.061.0673-.0728.1935-.0263.2819z" fill="#0278d5" fill-rule="evenodd"/><circle cx="24.2623" cy="16.3446" r="1.45032" stroke="#0278d5" stroke-width=".5" transform="matrix(-1 -0 0 -1 48.5246 32.6892)"/></svg>

<svg width="32" height="33" viewBox="0 0 32 33" fill="none" xmlns="http://www.w3.org/2000/svg">
<path d="M23.432 21.3913H7.96006C7.59126 21.3913 7.29229 21.0924 7.29229 20.7236V17.8398L6.70337 17.8525V20.6652C6.70337 21.4028 7.30132 22.0007 8.03892 22.0007H23.4186C24.1562 22.0007 24.7541 21.4028 24.7541 20.6652V17.8525L24.0997 17.8638V20.7236C24.0997 21.0924 23.8008 21.3913 23.432 21.3913Z" fill="#0278D5"/>
<path d="M8.02507 11.2639L23.497 11.2639C23.8658 11.2639 24.1647 11.5629 24.1647 11.9317L24.1647 14.8154L24.7537 14.8028L24.7537 11.9901C24.7537 11.2525 24.1557 10.6546 23.4181 10.6546L8.03847 10.6546C7.30087 10.6546 6.70293 11.2525 6.70292 11.9901L6.70292 14.8028L7.3573 14.7915L7.3573 11.9317C7.3573 11.5629 7.65627 11.2639 8.02507 11.2639Z" fill="#0278D5"/>
<path fill-rule="evenodd" clip-rule="evenodd" d="M3.34419 15.0138C3.29763 14.9254 3.21038 14.9084 3.14932 14.9758L2.05473 16.1832C2.02027 16.2212 2.00003 16.2803 2 16.343C1.99997 16.4057 2.02016 16.4648 2.05459 16.5029L3.14918 17.7135C3.21018 17.781 3.29744 17.7641 3.34408 17.6759C3.39072 17.5876 3.37907 17.4614 3.31806 17.3939L2.54984 16.5443L5.61499 16.5443L5.61499 16.142L2.55071 16.142L3.31792 15.2957C3.37899 15.2283 3.39075 15.1021 3.34419 15.0138Z" fill="#0278D5"/>
<circle cx="7.06531" cy="16.3449" r="1.45032" stroke="#0278D5" stroke-width="0.5"/>
<path fill-rule="evenodd" clip-rule="evenodd" d="M16.4095 12.9454C16.5955 12.9855 16.7136 13.1688 16.6734 13.3547L15.3036 19.4809C15.2634 19.6669 15.0801 19.785 14.8942 19.7448C14.7083 19.7046 14.5902 19.5213 14.6304 19.3354L16.0002 13.2092C16.0404 13.0233 16.2236 12.9052 16.4095 12.9454ZM17.4763 14.0096C17.6048 13.8694 17.8226 13.86 17.9628 13.9885L20.0292 15.8826C20.0967 15.9445 20.1367 16.0307 20.1405 16.1221C20.1444 16.2136 20.1116 16.3028 20.0495 16.3701L17.9832 18.6086C17.8542 18.7484 17.6363 18.7571 17.4965 18.6281C17.3568 18.4991 17.3481 18.2812 17.4771 18.1414L19.309 16.1568L17.4974 14.4962C17.3572 14.3677 17.3477 14.1498 17.4763 14.0096ZM13.3594 13.9932C13.4969 13.8617 13.7149 13.8666 13.8463 14.004C13.9778 14.1415 13.973 14.3595 13.8355 14.4909L12.0183 16.2292L13.8461 18.1364C13.9777 18.2738 13.9731 18.4918 13.8358 18.6234C13.6984 18.755 13.4804 18.7503 13.3488 18.613L11.2825 16.4568C11.2193 16.3909 11.1849 16.3024 11.1868 16.2111C11.1888 16.1197 11.2271 16.0329 11.2931 15.9697L13.3594 13.9932Z" fill="#0278D5"/>
<path fill-rule="evenodd" clip-rule="evenodd" d="M27.9834 17.6757C28.03 17.764 28.1173 17.781 28.1783 17.7137L29.2729 16.5063C29.3074 16.4683 29.3276 16.4092 29.3276 16.3465C29.3277 16.2838 29.3075 16.2246 29.273 16.1865L28.1785 14.9759C28.1175 14.9085 28.0302 14.9253 27.9836 15.0136C27.9369 15.1018 27.9486 15.2281 28.0096 15.2955L28.7778 16.1452L25.7126 16.1452L25.7126 16.5475L28.7769 16.5475L28.0097 17.3938C27.9487 17.4611 27.9369 17.5873 27.9834 17.6757Z" fill="#0278D5"/>
<circle cx="24.2623" cy="16.3446" r="1.45032" transform="rotate(-180 24.2623 16.3446)" stroke="#0278D5" stroke-width="0.5"/>
</svg>
